X:1
T:Keep it up [3]
M:2/4
L:1/8
R:Country Dance Tune
B:Dale’s Selection of the most favorite Country Dances,
B:Reels &c. (London, c. 1800, p. 19)
Z:AK/Fiddler’s Companion
K:D
G|FDDF|GEEG|FD D/E/F/G/|A2d2|
FDDF|GEEG|FDEC|D3:|
f/g/|afdB|gecA|fd AF|f2 ef/g/|
afdB|gecA|Bgec|d2 df/g/|
afdB|gecA|dfBg|f2 e A/G/|
FDDF|GEEG|FD {F}ED/C/|D3||

